X: 36958
T: Shrewsbury Lasses
R: barndance
M: 4/4
K: Dmajor
|:(3ABc|"D" d2 A4 "A7" G2|"D" F2 D4 F2|"Em" E2 G2 "A7" F2 E2|"D" F2 D2 "F#m" F2 A2|
"Bm" d2 f4 d2|"A" c2 e4 A2|"Bm" B2 d2 "E7" B2 ^G2|"A" A6:|
|:(3ABc|"Bm" d2 B4 "Em" G2|"Em" G2 E4 "D" a2|"D" a2 f4 "Bm" d2|"Bm" d2 B4 "G" b2|"G" b2 g4 "A" e2|"A" e2 c4 A2|
"Em" G2 B4 "A7" G2|"D" (3F2G2A2 F2 D2|"G" G2 B4 G2|"D" F2 A2 "Bm" d2 f2|"Em" f2 e2 "A7" d2 c2|"D" d6:|

